svg/regular/bx-microchip.svg

<svg xmlns="http://www.w3.org/2000/svg" width="24" height="24"><path d="M16 2H8c-1.103 0-2 .897-2 2v16c0 1.103.897 2 2 2h8c1.103 0 2-.897 2-2V4c0-1.103-.897-2-2-2zM8 20V4h8l.001 16H8zM3 7h2V5H3v.5H2v1h1zm18-2h-2v2h2v-.5h1v-1h-1zM3 11h2V9H3v.5H2v1h1zm18-2h-2v2h2v-.5h1v-1h-1zM3 15h2v-2H3v.5H2v1h1zm18-2h-2v2h2v-.5h1v-1h-1zM3 19h2v-2H3v.5H2v1h1zm18-2h-2v2h2v-.5h1v-1h-1z"/></svg>

<svg xmlns="http://www.w3.org/2000/svg" width="24" height="24" viewBox="0 0 24 24"><path d="M16 2H8C6.897 2 6 2.897 6 4v16c0 1.103.897 2 2 2h8c1.103 0 2-.897 2-2V4C18 2.897 17.103 2 16 2zM8 20V4h8l.001 16H8zM3 7L5 7 5 5 3 5 3 5.5 2 5.5 2 6.5 3 6.5zM21 5L19 5 19 7 21 7 21 6.5 22 6.5 22 5.5 21 5.5zM3 11L5 11 5 9 3 9 3 9.5 2 9.5 2 10.5 3 10.5zM21 9L19 9 19 11 21 11 21 10.5 22 10.5 22 9.5 21 9.5zM3 15L5 15 5 13 3 13 3 13.5 2 13.5 2 14.5 3 14.5zM21 13L19 13 19 15 21 15 21 14.5 22 14.5 22 13.5 21 13.5zM3 19L5 19 5 17 3 17 3 17.5 2 17.5 2 18.5 3 18.5zM21 17L19 17 19 19 21 19 21 18.5 22 18.5 22 17.5 21 17.5z"/></svg>
